X: 2
T: Hommage Till En Spelman
Z: JACKB
S: https://thesession.org/tunes/15242#setting28349
R: barndance
M: 4/4
L: 1/8
K: Gmaj
G>A|:B2 A<B c2 B<c|dgf<g e2 f<g|d2 GA cBA<G|A4 A2 G>A|
B2 A<B c2 B<c|dgf<g ecB<c|dedD E2 G<F|G4 G4:||
d<B|:e2 c<B A2 c<A|d2 B<A G2 B<G|c2 A<G FEEF|G4 G2 d<B|
e2 c<B A2 c<A|d2 B<A G2 B<G|cBAG FG/F/ E>F|G2 F<E D2 E>F|
G2 F<G A2 G<A|B2 A<B c2 d>e|d2 c<B A4|G4 G4||
